X: 012031
T: Andy McGann's Jig
C: Andy McGann
L: 1/8
M: 6/8
R: jig
Q: 1/4=165
K: D
A, | DEF EDB, | DFA dcd | edB AFD | F/G/AF ECA, |
DEF EDB, | DFA dcd | edB AFD | EDC D2 :|
